X: 1049
T: the Cleaver Lad, or
T: Gin I was a bonny Lad
P: Longways for as many as will
R: reel
B: "Caledonian Country Dances" printed by John Walsh for John Johnson, London
S: http://imslp.org/wiki/Caledonian_Country_Dances_with_a_Thorough_Bass_(Various)
Z: 2013 John Chambers <jc:trillian.mit.edu>
N: Repeats added to satisfy the "Each Strain twice" instruction.
M: C|
L: 1/8
K: A
% - - - - - - - - - - - - - - - - - - - - - - - - -
V: 1
|: c>BAg f/g/a e>c | d>fe>d B/B/B B>e | c>BAa g/a/b e>c | d>fe>c A/A/A A2 :|
|: cA eA fA eA | df ec B/B/B Be | cA eA aA ec | df ec A/A/A A2 :|
% - - - - - - - - - - - - - - - - - - - - - - - - -
V: 2 clef=bass middle=d
|: ABcA d2cA | AdcA e2G2 | ABcd edcA | BdcA a2A2 :|
|: A2c2 d2c2 | BdcA e2G2 | A2c2 d2c2 | BdcB a2A2 :|
% - - - - - - - - - - - - - - - - - - - - - - - - -
%%center Each Strain twice.
%%begintext align
The 1st Man turns the 2d Wo. and fall back and turn S. then 1st Wo.
sett to the 2d Man and fall back and turn S. the 1st Man change Places with
the 2d Wo. then 1st Wo. change Places with the 2d Man. then all four meet & turn
S. then the 1st Cu. being in the 2d Cu Place, lead thro' and cast off.
%%endtext

%%sep 1 1 500
%%sep 1 1 500
